public/index.svg

<?xml version="1.0" standalone="no"?>
<!DOCTYPE svg PUBLIC "-//W3C//DTD SVG 20010904//EN"
 "http://www.w3.org/TR/2001/REC-SVG-20010904/DTD/svg10.dtd">
<svg version="1.0" xmlns="http://www.w3.org/2000/svg"
 width="800.000000pt" height="800.000000pt" viewBox="0 0 800.000000 800.000000"
 preserveAspectRatio="xMidYMid meet">

<g transform="translate(0.000000,800.000000) scale(0.100000,-0.100000)"
fill="#000000" stroke="none">
<path d="M5504 7448 c-43 -133 -120 -250 -294 -448 -345 -393 -447 -522 -560
-710 -122 -202 -155 -316 -147 -500 9 -197 70 -367 204 -569 87 -130 279 -334
293 -310 5 7 6 130 3 273 -5 214 -3 281 11 374 31 212 112 410 281 692 183
305 225 393 255 540 17 82 18 83 19 35 4 -205 -87 -535 -250 -902 -59 -134
-98 -255 -120 -373 -14 -75 -18 -366 -6 -424 l8 -38 38 63 c20 35 96 152 167
259 225 335 345 549 427 755 51 128 69 227 69 375 0 201 -46 385 -148 600 -74
155 -202 358 -226 360 -3 0 -14 -24 -24 -52z"/>
<path d="M2405 6445 c-72 -30 -115 -73 -115 -115 0 -17 14 -85 30 -152 47
-188 45 -195 -74 -313 -115 -114 -121 -116 -304 -72 -193 47 -221 38 -270 -80
-46 -108 -28 -139 137 -241 161 -100 164 -103 163 -267 -1 -174 1 -171 -180
-280 -155 -94 -169 -127 -108 -257 23 -48 33 -59 69 -73 41 -15 46 -15 187 19
185 45 189 44 303 -68 47 -46 90 -92 96 -104 16 -31 14 -68 -14 -188 -39 -165
-41 -182 -20 -220 13 -24 35 -40 86 -63 129 -58 144 -49 277 174 65 109 96
125 242 125 156 0 173 -11 270 -170 105 -173 137 -187 270 -120 56 28 80 59
80 103 0 12 -14 83 -31 158 -43 182 -42 185 73 299 120 119 122 119 305 75 89
-21 154 -32 173 -29 41 9 76 47 100 110 42 114 28 139 -136 239 -163 101 -164
102 -164 269 0 166 4 173 151 262 158 95 164 101 164 166 -1 80 -43 161 -96
182 -39 16 -44 15 -186 -19 -100 -24 -157 -33 -181 -29 -25 5 -57 30 -128 101
-117 118 -117 120 -75 302 17 75 31 148 31 163 0 41 -43 83 -115 112 -109 44
-132 31 -235 -136 -103 -165 -99 -163 -268 -163 -171 0 -172 1 -272 166 -41
66 -84 127 -95 135 -39 25 -77 25 -140 -1z m634 -740 c95 -25 162 -65 236
-139 203 -205 207 -505 8 -717 -103 -109 -221 -159 -374 -159 -202 0 -378 111
-465 293 -138 292 21 636 333 722 65 18 196 18 262 0z"/>
<path d="M6754 6129 c-438 -314 -761 -619 -1011 -953 -277 -370 -438 -851
-459 -1366 l-6 -145 99 195 c144 285 254 454 484 740 64 80 199 255 300 390
232 309 407 531 452 575 15 15 5 -1 -124 -195 -322 -485 -655 -1153 -828
-1665 -42 -124 -48 -151 -36 -153 23 -5 183 42 283 84 202 83 465 240 648 387
178 144 371 372 453 534 242 482 202 1028 -116 1575 l-39 68 -100 -71z"/>
<path d="M4273 4730 c-38 -23 -41 -44 -18 -130 8 -30 15 -63 15 -73 0 -21 -86
-116 -116 -127 -12 -5 -52 -1 -99 11 -71 16 -82 17 -102 4 -24 -16 -49 -84
-40 -108 3 -8 37 -36 76 -60 38 -25 74 -54 79 -64 13 -24 13 -111 1 -144 -9
-24 -62 -65 -126 -98 -45 -23 -37 -105 13 -138 21 -13 31 -13 93 1 106 24 112
23 170 -38 28 -30 51 -61 51 -68 0 -7 -7 -45 -16 -84 -22 -93 -15 -117 37
-138 23 -9 50 -14 61 -10 10 3 39 37 63 74 24 38 53 74 64 79 25 14 127 14
152 0 11 -5 40 -41 64 -79 24 -37 53 -71 63 -74 11 -4 38 1 61 10 52 21 59 45
37 138 -9 39 -16 77 -16 84 0 7 23 38 51 68 59 61 72 64 172 38 78 -20 100
-14 122 35 27 61 16 84 -64 131 -76 44 -84 57 -86 135 -2 75 8 91 85 141 39
25 74 53 77 61 9 24 -16 92 -40 108 -19 12 -32 12 -106 -5 -52 -11 -91 -15
-101 -10 -25 13 -110 108 -110 122 0 7 7 40 15 73 22 94 20 112 -17 135 -38
23 -77 26 -100 8 -8 -7 -32 -41 -52 -74 -20 -34 -43 -65 -52 -68 -24 -9 -147
-7 -163 3 -8 5 -33 40 -56 78 -37 61 -45 68 -76 71 -21 1 -47 -5 -66 -18z
m379 -375 c54 -19 109 -69 140 -127 33 -63 32 -175 -2 -241 -60 -118 -201
-173 -323 -127 -78 29 -111 59 -148 136 -28 57 -31 71 -27 127 8 101 63 181
153 226 49 25 143 27 207 6z"/>
<path d="M940 4213 c-8 -3 -27 -17 -42 -31 -22 -21 -28 -35 -28 -70 0 -54 12
-77 50 -97 42 -22 846 -23 889 -1 57 30 69 116 22 168 l-29 33 -424 2 c-233 1
-430 -1 -438 -4z"/>
<path d="M7010 3993 c-14 -10 -212 -186 -440 -393 -228 -206 -458 -414 -511
-462 l-96 -87 -6 -83 c-3 -48 -14 -106 -26 -138 -29 -76 -101 -164 -173 -211
-119 -76 -85 -73 -818 -77 -360 -1 -665 0 -677 3 -35 8 -48 41 -29 70 l16 24
673 3 672 3 66 32 c135 67 205 182 197 323 -3 46 -13 93 -26 122 -31 70 -102
141 -175 174 l-62 29 -1055 5 -1055 5 -106 56 c-127 67 -209 90 -348 97 -121
6 -212 -8 -325 -49 -158 -57 -202 -93 -589 -478 -196 -195 -356 -359 -354
-364 1 -5 265 -271 586 -593 l584 -584 121 118 c162 157 268 225 428 274 l73
22 1175 6 c1287 6 1200 1 1296 63 22 14 368 355 770 759 831 834 779 771 779
938 0 83 -4 101 -27 146 -30 57 -95 120 -133 130 -57 14 -114 -18 -310 -175
-71 -57 -137 -109 -145 -115 -15 -11 14 23 146 172 40 44 75 90 79 102 21 66
-42 150 -113 150 -21 0 -49 -8 -62 -17z"/>
<path d="M364 3796 c-39 -39 -44 -77 -18 -127 30 -58 37 -59 559 -59 512 0
513 0 549 52 9 12 16 42 16 66 0 35 -6 49 -29 73 l-29 29 -507 0 -507 0 -34
-34z"/>
<path d="M1125 2350 c-176 -177 -321 -322 -322 -323 -1 -2 352 -357 785 -790
l787 -787 323 323 322 322 -788 788 -788 788 -319 -321z m773 -494 c15 -8 190
-178 389 -378 279 -281 363 -370 368 -395 13 -66 -52 -132 -118 -117 -24 5
-119 94 -403 378 -403 402 -404 404 -367 469 32 53 81 69 131 43z"/>
</g>
</svg>

<?xml version="1.0" encoding="UTF-8" standalone="no" ?>
<!DOCTYPE svg PUBLIC "-//W3C//DTD SVG 1.1//EN" "http://www.w3.org/Graphics/SVG/1.1/DTD/svg11.dtd">
<svg xmlns="http://www.w3.org/2000/svg" xmlns:xlink="http://www.w3.org/1999/xlink" version="1.1" width="1080" height="1080" viewBox="0 0 1080 1080" xml:space="preserve">
<desc>Created with Fabric.js 5.2.4</desc>
<defs>
</defs>
<g transform="matrix(1 0 0 1 540 540)" id="2abf83cd-76bf-46c4-9dc2-bcee9b94ea05"  >
<rect style="stroke: none; stroke-width: 1; stroke-dasharray: none; stroke-linecap: butt; stroke-dashoffset: 0; stroke-linejoin: miter; stroke-miterlimit: 4; fill: rgb(255,255,255); fill-rule: nonzero; opacity: 1; visibility: hidden;" vector-effect="non-scaling-stroke"  x="-540" y="-540" rx="0" ry="0" width="1080" height="1080" />
</g>
<g transform="matrix(1 0 0 1 540 540)" id="777e1c24-d3eb-4cd5-a7a4-ae289047c74a"  >
</g>
<g transform="matrix(0.13 0 0 -0.13 706.56 242.73)"  >
<path style="stroke: none; stroke-width: 1; stroke-dasharray: none; stroke-linecap: butt; stroke-dashoffset: 0; stroke-linejoin: miter; stroke-miterlimit: 4; fill: rgb(64,255,0); fill-rule: nonzero; opacity: 1;" vector-effect="non-scaling-stroke"  transform=" translate(-5201.94, -6204.53)" d="M 5504 7448 C 5461 7315 5384 7198 5210 7000 C 4865 6607 4763 6478 4650 6290 C 4528 6088 4495 5974 4503 5790 C 4512 5593 4573 5423 4707 5221 C 4794 5091 4986 4887 5000 4911 C 5005 4918 5006 5041 5003 5184 C 4998 5398 5000 5465 5014 5558 C 5045 5770 5126 5968 5295 6250 C 5478 6555 5520 6643 5550 6790 C 5567 6872 5568 6873 5569 6825 C 5573 6620 5482 6290 5319 5923 C 5260 5789 5221 5668 5199 5550 C 5185 5475 5181 5184 5193 5126 L 5201 5088 L 5239 5151 C 5259 5186 5335 5303 5406 5410 C 5631 5745 5751 5959 5833 6165 C 5884 6293 5902 6392 5902 6540 C 5902 6741 5856 6925 5754 7140 C 5680 7295 5552 7498 5528 7500 C 5525 7500 5514 7476 5504 7448 z" stroke-linecap="round" />
</g>
<g transform="matrix(0.13 0 0 -0.13 400.98 376.25)"  >
<path style="stroke: none; stroke-width: 1; stroke-dasharray: none; stroke-linecap: butt; stroke-dashoffset: 0; stroke-linejoin: miter; stroke-miterlimit: 4; fill: rgb(0,226,255); fill-rule: nonzero; opacity: 1;" vector-effect="non-scaling-stroke"  transform=" translate(-2910.13, -5203.16)" d="M 2405 6445 C 2333 6415 2290 6372 2290 6330 C 2290 6313 2304 6245 2320 6178 C 2367 5990 2365 5983 2246 5865 C 2131 5751 2125 5749 1942 5793 C 1749 5840 1721 5831 1672 5713 C 1626 5605 1644 5574 1809 5472 C 1970 5372 1973 5369 1972 5205 C 1971 5031 1973 5034 1792 4925 C 1637 4831 1623 4798 1684 4668 C 1707 4620 1717 4609 1753 4595 C 1794 4580 1799 4580 1940 4614 C 2125 4659 2129 4658 2243 4546 C 2290 4500 2333 4454 2339 4442 C 2355 4411 2353 4374 2325 4254 C 2286 4089 2284 4072 2305 4034 C 2318 4010 2340 3994 2391 3971 C 2520 3913 2535 3922 2668 4145 C 2733 4254 2764 4270 2910 4270 C 3066 4270 3083 4259 3180 4100 C 3285 3927 3317 3913 3450 3980 C 3506 4008 3530 4039 3530 4083 C 3530 4095 3516 4166 3499 4241 C 3456 4423 3457 4426 3572 4540 C 3692 4659 3694 4659 3877 4615 C 3966 4594 4031 4583 4050 4586 C 4091 4595 4126 4633 4150 4696 C 4192 4810 4178 4835 4014 4935 C 3851 5036 3850 5037 3850 5204 C 3850 5370 3854 5377 4001 5466 C 4159 5561 4165 5567 4165 5632 C 4164 5712 4122 5793 4069 5814 C 4030 5830 4025 5829 3883 5795 C 3783 5771 3726 5762 3702 5766 C 3677 5771 3645 5796 3574 5867 C 3457 5985 3457 5987 3499 6169 C 3516 6244 3530 6317 3530 6332 C 3530 6373 3487 6415 3415 6444 C 3306 6488 3283 6475 3180 6308 C 3077 6143 3081 6145 2912 6145 C 2741 6145 2740 6146 2640 6311 C 2599 6377 2556 6438 2545 6446 C 2506 6471 2468 6471 2405 6445 z M 3039 5705 C 3134 5680 3201 5640 3275 5566 C 3478 5361 3482 5061 3283 4849 C 3180 4740 3062 4690 2909 4690 C 2707 4690 2531 4801 2444 4983 C 2306 5275 2465 5619 2777 5705 C 2842 5723 2973 5723 3039 5705 z" stroke-linecap="round" />
</g>
<g transform="matrix(0.13 0 0 -0.13 842.5 419.89)"  >
<path style="stroke: none; stroke-width: 1; stroke-dasharray: none; stroke-linecap: butt; stroke-dashoffset: 0; stroke-linejoin: miter; stroke-miterlimit: 4; fill: rgb(0,255,105); fill-rule: nonzero; opacity: 1;" vector-effect="non-scaling-stroke"  transform=" translate(-6221.54, -4875.82)" d="M 6754 6129 C 6316 5815 5993 5510 5743 5176 C 5466 4806 5305 4325 5284 3810 L 5278 3665 L 5377 3860 C 5521 4145 5631 4314 5861 4600 C 5925 4680 6060 4855 6161 4990 C 6393 5299 6568 5521 6613 5565 C 6628 5580 6618 5564 6489 5370 C 6167 4885 5834 4217 5661 3705 C 5619 3581 5613 3554 5625 3552 C 5648 3547 5808 3594 5908 3636 C 6110 3719 6373 3876 6556 4023 C 6734 4167 6927 4395 7009 4557 C 7251 5039 7211 5585 6893 6132 L 6854 6200 L 6754 6129 z" stroke-linecap="round" />
</g>
<g transform="matrix(0.13 0 0 -0.13 620.3 522.38)"  >
<path style="stroke: none; stroke-width: 1; stroke-dasharray: none; stroke-linecap: butt; stroke-dashoffset: 0; stroke-linejoin: miter; stroke-miterlimit: 4; fill: rgb(38,0,255); fill-rule: nonzero; opacity: 1;" vector-effect="non-scaling-stroke"  transform=" translate(-4555, -4107.13)" d="M 4273 4730 C 4235 4707 4232 4686 4255 4600 C 4263 4570 4270 4537 4270 4527 C 4270 4506 4184 4411 4154 4400 C 4142 4395 4102 4399 4055 4411 C 3984 4427 3973 4428 3953 4415 C 3929 4399 3904 4331 3913 4307 C 3916 4299 3950 4271 3989 4247 C 4027 4222 4063 4193 4068 4183 C 4081 4159 4081 4072 4069 4039 C 4060 4015 4007 3974 3943 3941 C 3898 3918 3906 3836 3956 3803 C 3977 3790 3987 3790 4049 3804 C 4155 3828 4161 3827 4219 3766 C 4247 3736 4270 3705 4270 3698 C 4270 3691 4263 3653 4254 3614 C 4232 3521 4239 3497 4291 3476 C 4314 3467 4341 3462 4352 3466 C 4362 3469 4391 3503 4415 3540 C 4439 3578 4468 3614 4479 3619 C 4504 3633 4606 3633 4631 3619 C 4642 3614 4671 3578 4695 3540 C 4719 3503 4748 3469 4758 3466 C 4769 3462 4796 3467 4819 3476 C 4871 3497 4878 3521 4856 3614 C 4847 3653 4840 3691 4840 3698 C 4840 3705 4863 3736 4891 3766 C 4950 3827 4963 3830 5063 3804 C 5141 3784 5163 3790 5185 3839 C 5212 3900 5201 3923 5121 3970 C 5045 4014 5037 4027 5035 4105 C 5033 4180 5043 4196 5120 4246 C 5159 4271 5194 4299 5197 4307 C 5206 4331 5181 4399 5157 4415 C 5138 4427 5125 4427 5051 4410 C 4999 4399 4960 4395 4950 4400 C 4925 4413 4840 4508 4840 4522 C 4840 4529 4847 4562 4855 4595 C 4877 4689 4875 4707 4838 4730 C 4800 4753 4761 4756 4738 4738 C 4730 4731 4706 4697 4686 4664 C 4666 4630 4643 4599 4634 4596 C 4610 4587 4487 4589 4471 4599 C 4463 4604 4438 4639 4415 4677 C 4378 4738 4370 4745 4339 4748 C 4318 4749 4292 4743 4273 4730 z M 4652 4355 C 4706 4336 4761 4286 4792 4228 C 4825 4165 4824 4053 4790 3987 C 4730 3869 4589 3814 4467 3860 C 4389 3889 4356 3919 4319 3996 C 4291 4053 4288 4067 4292 4123 C 4300 4224 4355 4304 4445 4349 C 4494 4374 4588 4376 4652 4355 z" stroke-linecap="round" />
</g>
<g transform="matrix(0.13 0 0 -0.13 194.97 522.32)"  >
<path style="stroke: none; stroke-width: 1; stroke-dasharray: none; stroke-linecap: butt; stroke-dashoffset: 0; stroke-linejoin: miter; stroke-miterlimit: 4; fill: rgb(0,4,255); fill-rule: nonzero; opacity: 1;" vector-effect="non-scaling-stroke"  transform=" translate(-1365.02, -4107.63)" d="M 940 4213 C 932 4210 913 4196 898 4182 C 876 4161 870 4147 870 4112 C 870 4058 882 4035 920 4015 C 962 3993 1766 3992 1809 4014 C 1866 4044 1878 4130 1831 4182 L 1802 4215 L 1378 4217 C 1145 4218 948 4216 940 4213 z" stroke-linecap="round" />
</g>
<g transform="matrix(0.13 0 0 -0.13 635.54 708)"  >
<path style="stroke: none; stroke-width: 1; stroke-dasharray: none; stroke-linecap: butt; stroke-dashoffset: 0; stroke-linejoin: miter; stroke-miterlimit: 4; fill: rgb(255,244,104); fill-rule: nonzero; opacity: 1;" vector-effect="non-scaling-stroke"  transform=" translate(-4669.31, -2715)" d="M 7010 3993 C 6996 3983 6798 3807 6570 3600 C 6342 3394 6112 3186 6059 3138 L 5963 3051 L 5957 2968 C 5954 2920 5943 2862 5931 2830 C 5902 2754 5830 2666 5758 2619 C 5639 2543 5673 2546 4940 2542 C 4580 2541 4275 2542 4263 2545 C 4228 2553 4215 2586 4234 2615 L 4250 2639 L 4923 2642 L 5595 2645 L 5661 2677 C 5796 2744 5866 2859 5858 3000 C 5855 3046 5845 3093 5832 3122 C 5801 3192 5730 3263 5657 3296 L 5595 3325 L 4540 3330 L 3485 3335 L 3379 3391 C 3252 3458 3170 3481 3031 3488 C 2910 3494 2819 3480 2706 3439 C 2548 3382 2504 3346 2117 2961 C 1921 2766 1761 2602 1763 2597 C 1764 2592 2028 2326 2349 2004 L 2933 1420 L 3054 1538 C 3216 1695 3322 1763 3482 1812 L 3555 1834 L 4730 1840 C 6017 1846 5930 1841 6026 1903 C 6048 1917 6394 2258 6796 2662 C 7627 3496 7575 3433 7575 3600 C 7575 3683 7571 3701 7548 3746 C 7518 3803 7453 3866 7415 3876 C 7358 3890 7301 3858 7105 3701 C 7034 3644 6968 3592 6960 3586 C 6945 3575 6974 3609 7106 3758 C 7146 3802 7181 3848 7185 3860 C 7206 3926 7143 4010 7072 4010 C 7051 4010 7023 4002 7010 3993 z" stroke-linecap="round" />
</g>
<g transform="matrix(0.13 0 0 -0.13 132.96 574)"  >
<path style="stroke: none; stroke-width: 1; stroke-dasharray: none; stroke-linecap: butt; stroke-dashoffset: 0; stroke-linejoin: miter; stroke-miterlimit: 4; fill: rgb(0,226,255); fill-rule: nonzero; opacity: 1;" vector-effect="non-scaling-stroke"  transform=" translate(-899.93, -3720)" d="M 364 3796 C 325 3757 320 3719 346 3669 C 376 3611 383 3610 905 3610 C 1417 3610 1418 3610 1454 3662 C 1463 3674 1470 3704 1470 3728 C 1470 3763 1464 3777 1441 3801 L 1412 3830 L 905 3830 L 398 3830 L 364 3796 z" stroke-linecap="round" />
</g>
<g transform="matrix(0.13 0 0 -0.13 267.83 861.93)"  >
<path style="stroke: none; stroke-width: 1; stroke-dasharray: none; stroke-linecap: butt; stroke-dashoffset: 0; stroke-linejoin: miter; stroke-miterlimit: 4; fill: rgb(255,0,0); fill-rule: nonzero; opacity: 1;" vector-effect="non-scaling-stroke"  transform=" translate(-1911.5, -1560.5)" d="M 1125 2350 C 949 2173 804 2028 803 2027 C 802 2025 1155 1670 1588 1237 L 2375 450 L 2698 773 L 3020 1095 L 2232 1883 L 1444 2671 L 1125 2350 z M 1898 1856 C 1913 1848 2088 1678 2287 1478 C 2566 1197 2650 1108 2655 1083 C 2668 1017 2603 951 2537 966 C 2513 971 2418 1060 2134 1344 C 1731 1746 1730 1748 1767 1813 C 1799 1866 1848 1882 1898 1856 z" stroke-linecap="round" />
</g>
</svg>
